to draw
print [This is how it would look like in default] project 100 wait 600 cs print [Now choose the size you want!] project int readword print [Done!]
End

to project :n
repeat :n[arc2 90 :n rt 90 arc2 -90 :n pu home pd rt repcount*(360/:n)]
end

Make "startup [draw]
